X:2 
T:Variation no. 2 
C: J.S.Bach 
M:2/4 
V:3 bass 
K:G 
[V:1] z8 | z8 |g4 Mc'4-|c'2ba bagf | 
[V:2] B4 Me4-|e2 dc dcBA | G4 z2 a2 | f2d2 z4  | 
[V:3] G,2F,2G,2E,2| F,2E,2F,2D,2| E,2D,2E,2C,2|D,2D,,2 D,C,B,,A,, | 
% 
[V:1] g4-g=fed|e4-edcB |A4-AcBA | 
[V:2] zdce d2B2-|BAGB A2G2-|GFEGF4 | 
[V:3] B,,2A,,2B,,2G,,2 | C,2B,,2C,2A,,2 | D,2C,2D,2D,,2| 
% 
[V:1] Bgfa gfed | c'2b2z4 | z8 | B^deg b4-|bagb agfe | 
[V:2] G2 z2 z4 | GABde4- |ed^ce dcBA | G4 z2 g2 | e2^c2z4| 
[V:3] G,,2G,2B,2D2 | G2F2G2E2 | F2E2F2G2 | E2=D2E2B,2 | ^C2ED CB,A,G, | 
% 
[V:1] d4-d=cBA | B4-BAGF| E4-EGFE |1 D2z2 z4:|2 D4 z4  || 
[V:2] z AGB A2F2-|FEDF E2D2- |D^CB,DC4 |1 D2 z2 z4:|2 D4 z4 || 
[V:3] F,2E,2F,2D,2 | G,2F,2G,2E,2 | A,2G,2A,2A,,2 |1 D,2D^C D=CB,A,:|2 D,2A,,2D,,4|| 
% 
[V:1] |: A4 a4- | agfa gfe^d | e4 z2f2| ^d2B2 z4 | 
[V:2] |: zfeg fed"^#"c | d4z2B2 | G2E2 A4-| AGFA GFE^D | 
[V:3] |: D2^C2D2A,2 | B,2A,2B,2G,2 | =CC,B,,D, C,B,,A,,C,| B,,B,A,C B,A,G,F,| 
% 
[V:1] e4-e=dcB | c4-cBAG | F4-F=AGF| 
[V:2] EBAc B2G2-| GFEG F2E2-| E^D^CE D4 | 
[V:3] G,2F,2G,2E,2 | A,2G,2A,2F,2| B,2^A,2B,2B,,2| 
% 
[V:1] G4z4 | E4 A4- | AGFA GFED | C4c4- | cBAc BAGF| 
[V:2] E4B4-| BAGB AGFE | D4 G4- | GFEG FEDC | D4 z4 | 
[V:3] E,,E,^D,F, E,=D,C,B,, | C,2B,,2C,2A,2 | B,,2A,,2B,,2G,2 | A,,2G,,2A,,2G,2 | F,D,C,E, D,C,B,,A,,| 
% 
[V:1] B2G2 B2d2 | g4 c'4- | c'bac' bagf |1 g4 z4 :|2 g4 z4 |] 
[V:2] d4 =f4- | =fed=f eg^fg | a2d2- dcBA |1 B4 z4:|2 B4 z4 |] 
[V:3] G,,G,=F,A, G,F,E,D, | C,CB,D CB,A,G, | F,G,F,A, B,,2D,2 |1 G,,2G,F, G,A,B,C :|2 G,2D,2 G,,4 |]
